X:1
T:Title
%%score { 1 | 2 }
L:1/8
Q:1/4=100
M:2/4
K:D
V:1 treble nm="Grand Piano"
V:2 bass 
V:1
 [FA][FA] [=F^G][^FA] | [GB]2 [FA]2 | DD CD | [CE]4 | [EG][EG] [^DF][EG] | [Gc]2 [GB]2 | %6
w: Geo.~W.~Stockton * * *||||||
 AA [^GB][=Gc] |[M:1/4] [Fd]2 | [Fd][Fc] |[M:2/4] B2 G2 | G2 dB | [GB][FA] [FA][DF] | [FA]2 DF | %13
w: |||||||
 A2 DG | [A,DF]2[K:bass] [G,CE]2 | [G,CE]4 | [F,D]4 |] %17
w: ||||
V:2
 [D,D][D,D] [D,D][D,D] | [D,D]2 [D,D]2 | [D,F,A,][D,F,A,] [E,G,A,][D,F,A,] | [A,,A,]4 | %4
 [A,,A,][A,,A,] [A,,A,][A,,A,] | [A,,A,]2 [A,,A,]2 | A,A, [A,,A,][A,,A,] |[M:1/4] [D,A,]2 | %8
 [D,A,][D,A,] |[M:2/4][K:treble] [G,DG]2 [G,B,D]2 | [G,B,D]2 [G,B,G][G,DG] | %11
 [D,D][D,D] [D,D][D,A,] | [D,D]2 [D,F,][D,A,D] | [D,F,D]2 [F,A,][G,B,D] | A,,2 A,,2 | A,,4 | D,4 |] %17

